X:416
T: Maria wollte wandern (5-685), S. 26
N: P0685
O: Lothringen
S: MERKELBACH-PINCK, Angelika: Verklingende Weisen, Bd 5, Kassel 1962]
R: geistliches, religiöses Lied]
M: 2/4
L: 1/8
K: F
C | FFGF | EGF2 | z2
FG | A3A | GABG | A2z2- | z2
FG | A3A | AAdc | c2z2- | z2
cd | cBAB | c2G2 | F2z

